!!!COM:	Johannes Ockeghem
!!!CDT:	~1425-1497/02/06
!!!OPR:	Missa Cuiusvis toni (on F)
!!!ONM:	3
!!!OTL:	Credo
!!!AGN:	Mass; Credo
!!!SCT:	Ock1004.3c
!!!SCA:	Ock1004.3c
!!!voices:	4
!!!voices-OPR:	4
**kern	**kern	**kern	**kern
*staff4	*staff3	*staff2	*staff1
*Ivox	*Ivox	*Ivox	*Ivox
*I"Bassus	*I"Tenor	*I"Altus	*I"Discantus
*I'B	*I'T	*I'A	*I'D
*>[A,B,C]	*>[A,B,C]	*>[A,B,C]	*>[A,B,C]
*>A	*>A	*>A	*>A
*clefF4	*clefGv2	*clefGv2	*clefG2
*k[b-]	*k[b-]	*k[b-]	*k[b-]
*M3/1	*M3/1	*M3/1	*M3/1
*met(O)	*met(O)	*met(O)	*met(O)
!!section: Patrem
!!!OMD: Patrem
=1-	=1-	=1-	=1-
0.r	0.r	1f	1.f
.	.	2d\	.
.	.	2e\	2g/
.	.	1c	1a
=2	=2	=2	=2
0.r	2B-\	1B-	1b-
.	2G/	.	.
.	1F	2c\	2a/
.	.	2d\	2a/
.	1F	2c\	2a/
.	.	[2f\	[2a/
=3	=3	=3	=3
1D	1F	4f\]	4a/]
.	.	4d\	4f/
.	.	2d\	2f/
2E\	2G/	2c\	2r
2D\	2A/	1d	2f/
[1BB-	1B-	.	2f/
.	.	2d\	2f/
=4	=4	=4	=4
1BB-]	2F/	1d	2f/
.	2.B-\	.	2f/
2r	.	2d\	4g/
.	4A/	.	2a/
2F\	2F/	1c	.
.	.	.	4f/
2C/	2G/	.	2e/
[2D\	2F/	2A/	2d/
=5	=5	=5	=5
4D\]	1B-	2F/	4d/
4BB-/	.	.	4d/
2BB-/	.	2B-\	4d/
.	.	.	4d/
2AA/	2r	2c\	2c/
2BB-/	2B-\	2d\	4B-/
.	.	.	4d/
4C/	2A/	4c\	4e/
4D\	.	4A/	2f/
2BB-/	2B-\	2d\	.
.	.	.	8e/L
.	.	.	8d/J
=6	=6	=6	=6
1F	2c\	2r	2c/
.	2A/	2c\	2r
1BB-	1B-	1d	2B-/
.	.	.	2.d/
1r	2.d\	2.B-\	.
.	.	.	4e/
.	.	.	2f/
.	4c\	4A/	.
=7	=7	=7	=7
0.r	2.B-\	2.d\	4g/
.	.	.	4f/
.	.	.	4g/
.	4A/	4e\	2a/
.	2.F/	2f\	.
.	.	.	8g/L
.	.	.	8f/J
.	.	4d\	4a/
.	8E/L	2e\	2g/
.	8F/J	.	.
.	2A/	.	.
.	.	4c\	2f/
.	2G/	2B-\	.
.	.	.	4e/
=8	=8	=8	=8
2r	1F	2c\	1f
2F\	.	2r	.
2F\	1r	2d\	1r
1A	.	4c\	.
.	.	2f\	.
.	1r	.	1r
.	.	4e\	.
2A\	.	2c\	.
=9	=9	=9	=9
2B-\	0.r	2B-\	0.r
2B-\	.	2.d\	.
2F\	.	.	.
.	.	4c\	.
2F\	.	2A/	.
2G\	.	2G/	.
2G\	.	[2B-\	.
=10	=10	=10	=10
2D\	0.r	4B-\]	0.r
.	.	4A/	.
2r	.	2F/	.
2D\	.	2r	.
4E\	.	2.c\	.
2F\	.	.	.
4D\	.	4B-\	.
2C/	.	2c\	.
=11	=11	=11	=11
2BB-/	0.r	2d\	0.r
2F\	.	4c\	.
.	.	4d\	.
4G\	.	4e\	.
4A\	.	2f\	.
4B-\	.	.	.
4.c\	.	4.e-i\	.
8B-\L	.	8d\L	.
8A\	.	8c\	.
8G\J	.	8B-\J	.
4.A\	.	2c\	.
8G\	.	.	.
=12	=12	=12	=12
1B-	2r	1B-	2.d/
.	2B-\	.	.
.	.	.	4e/
1r	2B-\	1r	2f/
.	1B-	.	1g
1r	.	1r	.
.	2B-\	.	2f/
=13	=13	=13	=13
0.r	1c	0.r	1e
.	2.d\	.	2d/
.	.	.	2d/
.	4B-\	.	.
.	2A/	.	2f/
.	2A/	.	2f/
=14	=14	=14	=14
0.r	2B-\	0.r	2g/
.	2B-\	.	2g/
.	2F/	.	2a/
.	2F/	.	2a/
.	2G/	.	2.b-\
.	2A/	.	.
.	.	.	8a/L
.	.	.	8g/J
=15	=15	=15	=15
2r	1B-	1r	2f/
1G	.	.	2r
.	1r	2r	1r
2F\	.	1d	.
2G\	1r	.	1r
2E\	.	2c\	.
=16	=16	=16	=16
1D	1r	2d\	0.r
.	.	2B-\	.
1D	2r	1A	.
.	2F/	.	.
2E-i\	2B-\	1r	.
2C/	2A/	.	.
=17	=17	=17	=17
2D\	2B-\	1r	1r
2E-i\	2c\	.	.
1BB-	1d	2r	2r
.	.	1f	1b-
1BB-	1d	.	.
.	.	2f\	2b-\
=18	=18	=18	=18
1BB-	2d\	1f	1b-
.	2.d\	.	.
1F	.	1f	1a
.	4c\	.	.
.	2c\	.	.
1BB-	2.d\	2.f\	2.b-\
.	4B-\	4d\	4g/
=19	=19	=19	=19
2r	2A/	2c\	2f/
2BB-/	2B-\	2d\	2.g/
2C/	2A/	2c\	.
.	.	.	4f/
2D\	2F/	2B-\	2f/
1E-i	1G	1c	1e-i
=20	=20	=20	=20
1BB-	2F/	1B-	1d
.	1B-	.	.
2BB-/	.	1r	1r
2BB-/	2B-\	.	.
2.D\	2.B-\	1r	1r
4E-i\	4A/	.	.
=21	=21	=21	=21
2D\	2F/	0.r	0.r
2C/	2E/	.	.
2F\	1A	.	.
1F	.	.	.
.	1G	.	.
2E\	.	.	.
=22	=22	=22	=22
1F	1F	1f	2r
.	.	.	1a
1r	1r	1f	.
.	.	.	2a/
1r	1r	2f\	2a/
.	.	2f\	2a/
=23	=23	=23	=23
0.r	0.r	4g\	1b-
.	.	4f\	.
.	.	4e\	.
.	.	4d\	.
.	.	2c\	2a/
.	.	1f	2f/
.	.	.	1g
.	.	2e\	.
=24	=24	=24	=24
2r	2r	2.f\	1a
1F	1A	.	.
.	.	4d\	.
.	.	2c\	2f/
2D\	2A/	2d\	2f/
2E\	2G/	2B-\	2g/
2E\	2G/	2c\	2g/
=25	=25	=25	=25
1D	4A/	2.d\	2.f/
.	2A/	.	.
.	4F/	4B-\	4d/
2C/	2G/	2c\	2e/
2D\	2F/	2A/	1d
1AA	1E	1A	.
.	.	.	2c#i/
=26	=26	=26	=26
2r	1D	1A	1d
1D	.	.	.
.	1r	1A	1r
1F	.	.	.
.	1r	2A/	1r
2F\	.	[2d\	.
=27	=27	=27	=27
1F	0.r	4d\]	0.r
.	.	4c\	.
.	.	2A/	.
2E\	.	2B-\	.
2E\	.	2c\	.
1D	.	1d	.
=28	=28	=28	=28
1D	2A/	2A/	0.r
.	2A/	2A/	.
2D\	2A/	2A/	.
2D\	1d	1d	.
1G	.	.	.
.	2B-\	2B-\	.
=29	=29	=29	=29
2F\	1A	1A	0.r
1D	.	.	.
.	2B-\	2B-\	.
2E\	1G	1G	.
1C	.	.	.
.	2E/	2E/	.
=30	=30	=30	=30
2.BB-/	2F/	2D/	1f
.	2B-\	2d\	.
4D\	.	.	.
2C/	2c\	2e\	2a/
1BB-	1d	2.f\	1b-
.	.	4d\	.
2AA/	2c\	2e\	2cc\
=31	=31	=31	=31
1BB-	1B-	2d\	1dd
.	.	1g	.
2r	2G/	.	2.dd\
2.BB-/	1B-	2.f\	.
.	.	.	4cc\
.	.	.	4b-\
4C/	.	4e\	4a/
[2D\	[2F/	4d\	[2a/
.	.	8c\L	.
.	.	8B-\J	.
=32	=32	=32	=32
2D\]	2F/]	2A/	4a/]
.	.	.	4f/
2BB-/	2B-\	2.d\	2g/
2F\	2A/	.	2f/
.	.	4c\	.
2.G\	1B-	2B-\	2d/
.	.	1c	2.e/
4E\	.	.	.
2F\	2A/	.	.
.	.	.	4d/
=33	=33	=33	=33
2D\	2F/	0B-	2d/
1E-i	1G	.	2B-/
.	.	.	2e-i/
2D\	2F/	.	2f/
1BB-l	1Fl	1B-l	1dl
!!LO:LB:i:g=z
=34||	=34||	=34||	=34||
*>B	*>B	*>B	*>B
*clefF4	*clefGv2	*clefGv2	*clefG2
*k[b-]	*k[b-]	*k[b-]	*k[b-]
*M2/1	*M2/1	*M2/1	*M2/1
*met(C|)	*met(C|)	*met(C|)	*met(C|)
!!section: Et incarnatus est
!!!OMD: Et incarnatus est
1.F	0r	1.f	0r
2G\	.	2e\	.
=35	=35	=35	=35
1A	0r	1e	0r
1A	.	1c	.
=36	=36	=36	=36
1B-	0r	1d	0r
1B-	.	[1f	.
=37	=37	=37	=37
1F	0r	2f\]	0r
.	.	4e\	.
.	.	4d\	.
1F	.	1c	.
=38	=38	=38	=38
1B-	0r	1r	0r
2A\	.	2.f\	.
[2B-\	.	.	.
.	.	4d\	.
=39	=39	=39	=39
4B-\]	0r	2e\	0r
4A\	.	.	.
2F\	.	2.f\	.
2.G\	.	.	.
.	.	4e\	.
.	.	2c\	.
4F\	.	.	.
=40	=40	=40	=40
1D	0r	2.d\	0r
.	.	4c\	.
2r	.	2A/	.
[2D\	.	2A/	.
=41	=41	=41	=41
2D\]	0r	2B-\	0r
2E\	.	1c	.
1F	.	.	.
.	.	[2F/	.
=42	=42	=42	=42
2BB-/	0r	2F/]	0r
2.D\	.	2F/	.
.	.	2G/	.
4BB-/	.	.	.
2D\	.	2F/	.
=43	=43	=43	=43
2C/	0r	1A	0r
1F	.	.	.
.	.	1G	.
2E\	.	.	.
=44	=44	=44	=44
1F	0r	1F	0r
1r	.	1r	.
=45	=45	=45	=45
0BB-	0B-	0f	0b-
=46	=46	=46	=46
1F	1c	1f	1a
1F	1c	1f	1a
=47	=47	=47	=47
1G	1B-	1d	1b-
1A	1A	1c	1cc
=48	=48	=48	=48
0B-	0d	[0f	1.b-
.	.	.	2g/
=49	=49	=49	=49
0F	0c	0f]	0a
=50	=50	=50	=50
0r	0r	1c	1a
.	.	1c	1a
=51	=51	=51	=51
0r	0r	1d	1b-
.	.	1d	2.b-\
.	.	.	4a/
=52	=52	=52	=52
0r	0r	2e\	2g/
.	.	2d\	2f/
.	.	1e	1g
=53	=53	=53	=53
0r	0r	2f\	1f
.	.	4e\	.
.	.	4d\	.
.	.	1c	1e
=54	=54	=54	=54
0r	0r	1f	1a
.	.	2g\	2b-\
.	.	[2f\	[2cc\
=55	=55	=55	=55
0r	0r	2f\]	2cc\]
.	.	2d\	1b-
.	.	1c	.
.	.	.	2a/
=56	=56	=56	=56
1r	1r	1B-	1b-
[1B-	1B-	1r	1r
=57	=57	=57	=57
2B-\]	1d	0r	0r
2G\	.	.	.
1F	1d	.	.
=58	=58	=58	=58
1A	1c	0r	0r
1A	1c	.	.
=59	=59	=59	=59
1G	1B-	0r	0r
1F	2A/	.	.
.	[2c\	.	.
=60	=60	=60	=60
2E\	4c\]	0r	0r
.	4B-\	.	.
2.G\	2B-\	.	.
.	2A/	.	.
4F\	.	.	.
2F\	2F/	.	.
=61	=61	=61	=61
2E\	1G	0r	0r
2C/	.	.	.
1D	1F	.	.
=62	=62	=62	=62
1C	1r	1r	1r
[1F	[1A	[1c	[1f
=63	=63	=63	=63
1F]	1A]	1c]	1f]
1D	1A	1d	1f
=64	=64	=64	=64
1C	1A	1e	1e
1E-i	1G	1c	1g
=65	=65	=65	=65
1D	1A	1d	1f
1BB-	1B-	1d	1f
=66	=66	=66	=66
0C	1G	0c	0e
.	[1A	.	.
=67	=67	=67	=67
1F	1A]	1r	1r
1BB-	[1B-	1d	1f
=68	=68	=68	=68
1r	2B-\]	1B-	1f
.	2A/	.	.
1F	1F	2A/	1a
.	.	[2d\	.
=69	=69	=69	=69
2D\	0r	2d\]	2b-\
2C/	.	2e\	1cc
1F	.	1f	.
.	.	.	4b-\
.	.	.	4cc\
=70	=70	=70	=70
0r	0B-	2r	0dd
.	.	1f	.
.	.	2f\	.
=71	=71	=71	=71
0BB-	1r	2f\	1dd
.	.	2f\	.
.	2r	2g\	2dd\
.	[2B-\	[2f\	[2dd\
=72	=72	=72	=72
0r	4B-\]	2f\]	2dd\]
.	4F/	.	.
.	2A/	2e\	2cc\
.	2B-\	2.d\	1b-
.	2G/	.	.
.	.	4B-\	.
=73	=73	=73	=73
2r	1F	2.c\	1a
2.F\	.	.	.
.	.	4A/	.
.	2G/	2B-\	1r
4E\	.	.	.
[2F\	2F/	2A/	.
=74	=74	=74	=74
4F\]	2r	1c	1a
4D\	.	.	.
2C/	2E/	.	.
1BB-	2.F/	2r	1b-
.	.	[2F/	.
.	4G/	.	.
=75	=75	=75	=75
1r	2A/	2F/]	2.cc\
.	2B-\	2G/	.
.	.	.	4b-\
2r	1F	2A/	2cc\
2BB-/	.	2B-\	2dd\
=76	=76	=76	=76
2AA/	0r	1F	2cc\
4BB-/	.	.	1dd
2D\	.	.	.
.	.	1f	.
4E\	.	.	.
2F\	.	.	[2cc\
=77	=77	=77	=77
2C/	0r	2e\	2cc\]
2F\	.	2c\	2a/
2r	.	1d	2.b-\
2BB-/	.	.	.
.	.	.	4g/
=78	=78	=78	=78
1F	0r	1c	2a/
.	.	.	1cc
1r	.	1e	.
.	.	.	4b-\
.	.	.	4a/
=79	=79	=79	=79
0r	2B-\	2d\	2b-\
.	2c\	2e\	2g/
.	1d	2f\	2f/
.	.	[2f\	2a/
=80	=80	=80	=80
1r	1e-i	2f\]	1g
.	.	2e-i\	.
2BB-/	2B-\	2.d\	1f
[2F\	2A/	.	.
.	.	4c\	.
=81	=81	=81	=81
2F\]	1F	2.d\	1r
2D\	.	.	.
.	.	4c\	.
2C/	1r	1A	1cc
[2F\	.	.	.
=82	=82	=82	=82
4F\]	0r	2r	1cc
4D\	.	.	.
2C/	.	2A/	.
[1BB-	.	2B-\	[1dd
.	.	[2d\	.
=83	=83	=83	=83
1BB-]	1B-	2d\]	2dd\]
.	.	2e\	4cc\
.	.	.	4b-\
1r	1F	1f	1a
=84	=84	=84	=84
0r	2r	1c	2a/
.	1F	.	2cc\
.	.	2r	2dd\
.	2G/	[2c\	[2ee-i\
=85	=85	=85	=85
0r	2A/	2c\]	2ee-\]
.	1B-	2B-\	2dd\
.	.	2d\	2b-\
.	2A/	2e\	[2cc\
=86	=86	=86	=86
1r	1Fl	2.f\	4cc\]
.	.	.	4b-\
.	.	.	1b-
.	.	4d\	.
2r	1r	1c	.
2F\	.	.	2a/
=87	=87	=87	=87
2.G\	0r	2r	1b-
.	.	1d	.
4F\	.	.	.
2D\	.	.	1r
2E\	.	4c\	.
.	.	4B-\	.
=88	=88	=88	=88
2F\	0r	2A/	1f
1BB-	.	1B-	.
.	.	.	1g
2E-i\	.	2c\	.
=89	=89	=89	=89
2D\	0r	2F/	2f/
2BB-/	.	1d	1f
1F	.	.	.
.	.	4c\	2d/
.	.	4B-\	.
=90	=90	=90	=90
*	*	*	*M2/1
*	*	*	*met(3)
1r	0r	2.A/	3%2c
.	.	.	3B-/
.	.	4F/	.
2.G\	.	2.B-\	3%2d
.	.	.	3e/
4E\	.	4c\	.
=91	=91	=91	=91
2D\	0r	2d\	3f/
.	.	.	3g/
2E\	.	2c\	.
.	.	.	[3a/
2F\	.	2A/	3a/]
.	.	.	3f/
2BB-/	.	[2B-\	.
.	.	.	[3g/
=92	=92	=92	=92
1F	0r	4B-\]	6g/]
.	.	.	6f/
.	.	4A/	.
.	.	.	3%2f
.	.	2F/	.
2r	.	1G	3d/
.	.	.	2e/
2C/	.	.	.
.	.	.	6d/
=93	=93	=93	=93
4D\	0r	0Fl	0fl
2BB-/	.	.	.
4AA/	.	.	.
1FFl	.	.	.
!!LO:LB:i:g=z
=94||	=94||	=94||	=94||
*>C	*>C	*>C	*>C
*clefF4	*clefGv2	*clefGv2	*clefG2
*k[b-]	*k[b-]	*k[b-]	*k[b-]
*M2/1	*M2/1	*M2/1	*M2/1
*met(C|)	*met(C|)	*met(C|)	*met(C|)
!!section: Et iterum
!!!OMD: Et iterum
0r	0F	0c	0f
=95	=95	=95	=95
0r	1F	1d	1a
.	1F	1c	1a
=96	=96	=96	=96
0r	1G	1e	1b-
.	1G	1e	1g
=97	=97	=97	=97
0r	1F	1f	1a
.	1B-	1d	1b-
=98	=98	=98	=98
1r	1A	1c	1cc
1C	1A	1e	1cc
=99	=99	=99	=99
1.BB-	2r	1.f	1.dd
.	1B-	.	.
2BB-/	2B-\	2f\	2dd\
=100	=100	=100	=100
1BB-	1B-	2f\	1dd
.	.	2f\	.
1BB-	1B-	2.f\	1dd
.	.	4d\	.
=101	=101	=101	=101
2C/	2A/	2e\	2cc\
2D\	1B-	1d	2.b-\
2E\	.	.	.
.	.	.	4a/
[2F\	[2F/	2c\	2a/
=102	=102	=102	=102
2F\]	2F/]	1f	2r
2F\	2c\	.	2a/
2G\	2B-\	2e\	2b-\
2F\	2c\	[2f\	2a/
=103	=103	=103	=103
2D\	2d\	2f\]	2b-\
2BB-/	2d\	2f\	2g/
[1F	1c	2.f\	1a
.	.	4d\	.
=104	=104	=104	=104
1F]	2.A/	2c\	1r
.	.	2d\	.
.	4B-\	.	.
1F	2c\	2c\	1a
.	[2d\	[2f\	.
=105	=105	=105	=105
1F	2d\]	1f]	1a
.	4c\	.	.
.	4B-\	.	.
1F	1A	2.d\	1a
.	.	4c\	.
=106	=106	=106	=106
1E-i	2r	1e-i	2b-\
.	2G/	.	2.cc\
1D	2A/	1f	.
.	.	.	4b-\
.	2F/	.	[2b-\
=107	=107	=107	=107
1E-i	2E-i/	2g\	4b-\]
.	.	.	4a/
.	2.G/	2e-i\	2g/
1BB-	.	[1d	2f/
.	4A/	.	.
.	[2B-\	.	[2g/
=108	=108	=108	=108
0r	4B-\]	2d\]	4g/]
.	4A/	.	4f/
.	2F/	2c\	2.f/
.	1G	1B-	.
.	.	.	4d/
.	.	.	8e-i/L
.	.	.	8d/
.	.	.	8c/
.	.	.	8B-/J
=109	=109	=109	=109
2r	1F	2r	1A
1D	.	1f	.
.	1r	.	1r
2D\	.	2f\	.
=110	=110	=110	=110
2E\	0r	2g\	0r
2E\	.	2g\	.
1F	.	2f\	.
.	.	2f\	.
=111	=111	=111	=111
2r	0r	2e\	0r
1F	.	2f\	.
.	.	2d\	.
2E\	.	2c\	.
=112	=112	=112	=112
2F\	0r	2c\	0r
2D\	.	2B-\	.
2C/	.	1c	.
2C/	.	.	.
=113	=113	=113	=113
2C/	0r	1A	0r
1F	.	.	.
.	.	2d\	.
[2E-i\	.	[2c\	.
=114	=114	=114	=114
4E-\]	0r	4c\]	0r
4D\	.	4B-\	.
2BB-/	.	1B-	.
1C	.	.	.
.	.	2A/	.
=115	=115	=115	=115
1BB-	1r	1B-	1r
[1BB-	[1B-	[1d	[1f
=116	=116	=116	=116
1BB-]	1B-]	1d]	1f]
1BB-	1B-	1d	1f
=117	=117	=117	=117
1BB-	1B-	1d	1f
1BB-	1B-	1d	1f
=118	=118	=118	=118
1D	1A	1d	1f
1D	2F/	2d\	1f
.	[2B-\	2B-\	.
=119	=119	=119	=119
1C	4B-\]	1c	1e
.	4G/	.	.
.	2A/	.	.
1BB-	1B-	1d	2d/
.	.	.	[2f/
=120	=120	=120	=120
2.D\	2A/	1d	2f/]
.	2B-\	.	2g/
4E\	.	.	.
2F\	2A/	2c\	2a/
[2G\	[2B-\	2B-\	[2g/
=121	=121	=121	=121
2G\]	2B-\]	1d	2g/]
2D\	2A/	.	2.f/
1E	2G/	1c	.
.	.	.	4e/
.	4F/	.	4e/
.	4E/	.	4d/
=122	=122	=122	=122
1BB-	1D	1B-	1f
2AA/	1A	1r	1r
[2D\	.	.	.
=123	=123	=123	=123
4D\]	1B-	0r	0r
4E\	.	.	.
1F	.	.	.
.	1G	.	.
2E\	.	.	.
=124	=124	=124	=124
1F	1F	1c	1r
1r	1r	2c\	1a
.	.	[2d\	.
=125	=125	=125	=125
0r	0r	4d\]	2b-\
.	.	4e\	.
.	.	1f	2f/
.	.	.	1g
.	.	2e\	.
=126	=126	=126	=126
1r	1r	1f	1a
1A	1c	2.f\	1cc
.	.	4e\	.
=127	=127	=127	=127
0G	1B-	0g	0dd
.	[1B-	.	.
=128	=128	=128	=128
1B-	1B-]	2.g\	1dd
.	.	4f\	.
1F	1A	1f	1cc
=129	=129	=129	=129
0G	0B-	2d\	1.b-
.	.	1e	.
.	.	2d\	2g/
=130	=130	=130	=130
0F	0c	0f	0a
=131	=131	=131	=131
0r	1F	1f	1a
.	1F	1f	1a
=132	=132	=132	=132
0r	1F	1.f	1a
.	1A	.	1cc
.	.	4e\	.
.	.	4d\	.
=133	=133	=133	=133
0r	1A	1c	1cc
.	1G	2.d\	1b-
.	.	4B-\	.
=134	=134	=134	=134
0r	2F/	2c\	2a/
.	2E/	1e	1b-
.	2G/	.	.
.	2A/	2c\	4a/
.	.	.	4g/
=135	=135	=135	=135
1BB-	1B-	1d	1f
2AA/	1r	2c\	1f
2BB-/	.	2d\	.
=136	=136	=136	=136
2AA/	1F	2c\	2f/
1BB-	.	1d	2f/
.	1B-	.	2f/
2D\	.	2B-\	[2f/
=137	=137	=137	=137
1C	2A/	1c	4f/]
.	.	.	4e/
.	2A/	.	2e/
1BB-	2B-\	1F	2d/
.	[2d\	.	[2f/
=138	=138	=138	=138
1AA	2d\]	1r	2f/]
.	2c\	.	2e/
1BB-	1B-	1F	1d
=139	=139	=139	=139
1.F	1A	2.F/	1c
.	.	4G/	.
.	2F/	2A/	1r
2D\	[2F/	[2B-\	.
=140	=140	=140	=140
1C	2F/]	2B-\]	1c
.	2E/	2A/	.
1BB-	2F/	1B-	1d
.	2G/	.	.
=141	=141	=141	=141
1F	1A	2.c\	2c/
.	.	.	2f/
.	.	4A/	.
2E\	2r	2B-\	2g/
2D\	[2A/	[2d\	[2a/
=142	=142	=142	=142
1F	4A/]	4d\]	1a]
.	4B-\	4c\	.
.	2c\	2A/	.
1BB-	1d	2B-\	2g/
.	.	2d\	[2b-\
=143	=143	=143	=143
2r	2c\	2e\	4b-\]
.	.	.	4a/
1D	2A/	2f\	1a
.	1B-	1d	.
2E\	.	.	2g/
=144	=144	=144	=144
1F	1A	2r	1a
.	.	1c	.
2C/	2r	.	1a
[2D\	2d\	2A/	.
=145	=145	=145	=145
4D\]	2d\	2d\	2a/
4C/	.	.	.
2AA/	2c\	2e\	2a/
1D	2.d\	1f	2a/
.	.	.	2a/
.	4c\	.	.
=146	=146	=146	=146
2C/	1A	2e\	2a/
2D\	.	2d\	2a/
2E\	2r	2B-\	2g/
[2F\	[2D/	[2A/	[2a/
=147	=147	=147	=147
2F\]	2D/]	4A/]	2a/]
.	.	4F/	.
2E\	2E/	2G/	2g/
1D	1F	2A/	1f
.	.	2B-\	.
=148	=148	=148	=148
2C/	2G/	1c	1e
2AA/	1A	.	.
1D	.	1d	1r
.	2B-\	.	.
=149	=149	=149	=149
1C	0c	1e	1a
1F	.	[1f	[1a
=150	=150	=150	=150
0r	0F	2f\]	2a/]
.	.	2f\	2a/
.	.	2d\	1a
.	.	2c\	.
=151	=151	=151	=151
0r	0r	1f	1a
.	.	1g	1b-
=152	=152	=152	=152
0r	0r	2f\	2a/
.	.	2d\	2f/
.	.	1e	2.g/
.	.	.	4f/
=153	=153	=153	=153
0r	0r	2d\	1a
.	.	2c\	.
.	.	2d\	2b-\
.	.	2e-i\	[2cc\
=154	=154	=154	=154
0r	0r	1B-	4cc\]
.	.	.	4b-\
.	.	.	1b-
.	.	1c	.
.	.	.	2a/
=155	=155	=155	=155
0r	0r	0B-	1b-
.	.	.	1r
=156	=156	=156	=156
0r	0r	1d	1f
.	.	1e	1g
=157	=157	=157	=157
0r	1r	2f\	1a
.	.	2d\	.
.	1F	1c	1a
=158	=158	=158	=158
0r	1G	0r	1b-
.	1A	.	2a/
.	.	.	[2f/
=159	=159	=159	=159
0r	1A	0r	2f/]
.	.	.	4e/
.	.	.	4f/
.	[1B-	.	2.g/
.	.	.	4f/
=160	=160	=160	=160
1r	2B-\]	1r	1d
.	2A/	.	.
2.D\	1F	1B-	2r
.	.	.	[2f/
4C/	.	.	.
=161	=161	=161	=161
1C	2A/	1c	4f/]
.	.	.	4e/
.	2G/	.	2e/
1BB-	1B-	2.d\	2f/
.	.	.	[2g/
.	.	4B-\	.
=162	=162	=162	=162
2E\	2G/	2c\	4g/]
.	.	.	4f/
2D\	2A/	1d	2f/
2BB-/	2B-\	.	2d/
[2C/	[2A/	[2c\	[2e-i/
=163	=163	=163	=163
2C/]	4A/]	2c\]	4e-/]
.	4G/	.	4d/
2D\	2F/	2B-\	2B-/
1E-i	1G	2.G/	1c
.	.	4A/	.
=164	=164	=164	=164
1BB-	1F	1B-	1d
1r	1r	1r	1r
=165	=165	=165	=165
0r	2.B-\	0r	1d
.	4A/	.	.
.	1F	.	1d
=166	=166	=166	=166
0r	2E-i/	0r	1.e-i
.	1G	.	.
.	2A/	.	4d/
.	.	.	4c/
=167	=167	=167	=167
0r	1B-	0r	1d
.	1r	.	1r
=168	=168	=168	=168
0r	0r	2.B-\	1f
.	.	4c\	.
.	.	1d	1f
=169	=169	=169	=169
0r	0r	1e-i	1g
.	.	2d\	2f/
.	.	[2d\	2d/
=170	=170	=170	=170
0r	0r	2d\]	1e
.	.	2c#i\	.
.	.	1d	1f
=171	=171	=171	=171
1C	2A/	1c	1e
.	2G/	.	.
1BB-	2.B-\	[1d	2f/
.	.	.	[2g/
.	4A/	.	.
=172	=172	=172	=172
1D	1F	2d\]	4g/]
.	.	.	4f/
.	.	2B-\	2f/
2C/	[1G	2c\	2e-i/
[2E-i\	.	2B-\	4d/
.	.	.	4c/
=173	=173	=173	=173
4E-\]	2G/]	2E-i/	1B-
4D\	.	.	.
2BB-/	2F/	1B-	.
2E-i\	2G/	.	1c
2F\	2A/	2A/	.
=174	=174	=174	=174
1BB-	1F	1B-	1B-
1r	1r	1r	1r
=175	=175	=175	=175
*M3/1	*M3/1	*M3/1	*M3/1
*met(O)	*met(O)	*met(O)	*met(O)
0.r	0.r	1.d	1.f
.	.	2e\	2g/
.	.	1f	1a
=176	=176	=176	=176
0.r	0.r	1g	1b-
.	.	2.f\	1.cc
.	.	4e\	.
.	.	1c	.
.	.	.	4b-\
.	.	.	4a/
=177	=177	=177	=177
0.r	0F	1f	1a
.	.	1r	1r
.	1F	1f	1a
=178	=178	=178	=178
0.r	1G	1d	1b-
.	1.A	2.f\	0cc
.	.	4e\	.
.	.	1c	.
.	4G/	.	.
.	4A/	.	.
=179	=179	=179	=179
0.r	1B-	2B-\	1dd
.	.	2d\	.
.	2A/	2e\	2cc\
.	2F/	1f	2a/
.	1G	.	1b-
.	.	2e\	.
=180	=180	=180	=180
0.r	1F	2f\	2a/
.	.	2f\	2.dd\
.	1A	2e\	.
.	.	.	4cc\
.	.	2c\	1cc
.	1G	1d	.
.	.	.	2bni\
=181	=181	=181	=181
0.r	2r	1c	2.cc\
.	1A	.	.
.	.	.	4a/
.	.	0f	1a
.	2F/	.	.
.	1F	.	1r
=182	=182	=182	=182
1.BB-	0F	1.f	1.b-
2C/	.	2e\	2a/
1E-i	1G	1c	1g
=183	=183	=183	=183
1D	1A	1d	1f
2E-i\	2G/	2c\	2g/
2D\	2A/	2.d\	2f/
1BB-	2.B-\	.	1b-
.	.	4e\	.
.	.	[2f\	.
.	4A/	.	.
=184	=184	=184	=184
2r	1.F	4f\]	1a
.	.	4e\	.
2F\	.	2c\	.
2D\	.	2d\	2b-\
2C/	2E/	2.e\	2.cc\
1E	1G	.	.
.	.	4f\	4b-\
.	.	2g\	2b-\
=185	=185	=185	=185
2F\	2A/	1f	2a/
2BB-/	2B-\	.	2.dd\
1F	2A/	2r	.
.	.	.	4cc\
.	2.c\	2F/	2a/
2E\	.	2G/	2g/
.	4B-\	.	.
2D\	2d\	2F/	2b-\
=186	=186	=186	=186
2F\	2c\	2A/	2a/
2BB-/	2.B-\	2d\	2.g/
2E-i\	.	2e-i\	.
.	4A/	.	4f/
4F\	2F/	1d	1f
2D\	.	.	.
.	2.G/	.	.
4BB-/	.	.	.
2C/	.	2c\	2e/
.	4E/	.	.
=187	=187	=187	=187
2BB-/	2D/	0.Fl	0.fl
2AA/	2C/	.	.
1BB-	1D	.	.
1FF 1Fl	1Cl	.	.
==	==	==	==
*-	*-	*-	*-
!!!RDF**kern: l=long note in original notation
!!!RDF**kern: i=editorial accidental
!!!RDF**kern: V=start of tuplet marker
!!!RDF**kern: Z=end of tuplet marker
!!!ENC:	Jesse Rodin 8-24-2012
!!!END:	2012/08/24/
!!!EED:	Jesse Rodin
!!!EEV:	2012/08/28/
!!!ONB:	Translated from MusicXML and edited on 2012/08/28/ by Craig Sapp
!!muse2ps: T^@{OPR}^u^@{ONM}{. }@{OTL}^C^@{COM}^i2I150v85,85,85,150Q16
